X: 1
N: Byron Strathspey
N: 8 x 32S 3C (Drewry)
P: The Byron Strathspey
R: strathspey
C: Andrew Rankine
C: Arr. T. Traub 5-16-2000
M: 4/4
L: 1/8
K: A
R: strathspey
E>A|"A"c2 c2 "E7"B>c dG|"D"F>^EF>G "Cdim"A>B A<F|"A"E4-"E7"E2 E>G|"A"c2 c2 "E"B>c d<B|
"F#m"A2 a2 "D"f>g a<f|"A"e>f e<c "E"B>c d>B|"A"A4-A2 ||a>g|"D"f>^ff>g a>ga>f|"A"e4-e2 c2|"Bm"B>^AB>c "E7"d>c d<e|
"A"c4-"A7"c2 c>B|"D"A>GA>G "Cdim"A>B A<F|"A"E>^DE>A "F#7"c>e d<c|"B7"B>^AB>c "E7"d>B G<^B |"A"A4-A2 |]
